X:1
T:Christ Is Born! Tell Forth His Fame!
T:Hermann Rudolph Schroeder
T:Christ Is Born! Tell Forth His Fame!
T:Public Domain
C:Hermann Rudolph Schroeder
Z:Public Domain
%%score ( 1 2 ) ( 3 4 )
L:1/8
M:4/4
K:D
V:1 treble 
V:2 treble 
V:3 bass 
V:4 bass 
V:1
 [Fd]4 [GA]4 | B2 A2 E2 D2 | C2 D2 [EG]2 [DF]2 | [CE]8 | [DA]4 B2 c2 | D2 E2 [Ec]4 | %6
 [Fd]2 [Ec]2 E2 D2 | [CA]8 | D2 E2 [Fc]4 | [Fd]4 [FB]4 | B2 A2 z2 E2 x2 | [CF]4 [CF]4 | %12
 B,2 D2 A2 B2 | [Ec]4 [Fd]4 | G2 D2 [DA]4 x2 | B2 A2 [EG]4 | [EA]8 | [^DB]4 [DB]4 | [EB]4 A2 B2 | %19
 [Ec]4 [Fd]4 | G2 D2 [DA]4 x2 | B2 A2 [EG]4 | [EA]8 | [^DB]4 =D2 E2 | [Fd]4 [GA]4 x2 | [FB]4 F4 | %26
 [EG]2 [DF]2 [CE]4 x2 | D8 |] %28
V:2
 x8 | F4 G4 | A4 x4 | x8 | x4 D4 | d4 x4 | x4 B4 | x8 | d4 x4 | x8 | F6 G4 | x8 | B4 D4 | x8 | %14
 d4 x6 | D4 x4 | x8 | x8 | x4 E4 | x8 | d4 x6 | D4 x4 | x8 | x4 A4 | x10 | x4 F4 | x10 | D8 |] %28
V:3
 [D,D]4 D,2 C,2 | D2 C2 [E,B,]4 | A,,2 B,,2 C,2 D,2 | [A,,A,]8 | [F,A,]4 G,4 | %5
 [F,A,]2 [^G,B,]2 A,4 | [D,A,]4 [E,^G,]4 | [A,,A,]8 | [B,,F,]4 [^A,,C]4 | B,,2 C,2 [D,B,]4 | %10
 [^D,B,]4 [E,B,]4 x2 | [F,^A,]4 [F,A,]4 | [G,B,]4 [F,D]4 | [E,G,]4 D,2 =C,2 | B,,4 z2 F,2 x2 | %15
 [G,,G,]4 E,2 D,2 | G,2 F,2 E,4 | [B,,F,]4 [B,,F,]4 | [E,G,]4 [F,A,]2 G,2 | [E,G,]4 D,2 =C,2 | %20
 B,,4 z2 F,2 x2 | [G,,G,]4 E,2 D,2 | G,2 F,2 E,4 | [B,,F,]4 F,2 G,2 | A,4 z2 C,2 x2 | %25
 D2 C2 B,2 [^D,A,]2 | E,4 z2 A,2 x2 | [D,F,]8 |] %28
V:4
 x4 E4 | B,,4 x4 | A,4 A,4 | x8 | x4 G,4 | x4 A,4 | x8 | x8 | x8 | B,4 x4 | x10 | x8 | x8 | %13
 x4 A,4 | G,6 D,4 | x4 G,4 | =C,8 | x8 | x6 G,2 | x4 A,4 | G,6 D,4 | x4 G,4 | =C,8 | x4 D,4 | %24
 D,6 E4 | ^D,6 x2 | G,6 A,,4 | x8 |] %28

